X: 1
T: Brakpolskan
C: Lena Jonsson
R: polska
S: Fiddle Hell 2021-11-5 handout, Lena Jonsson's workshop
Z: 2021 John Chambers <jc:trillian.mit.edu>
M: 2/4
L: 1/16
K: Edor
|:\
e2BG (EG)Bd c2B2 | B2GF (ED)B,G E3E |\
F2dd (d2c2) c2(BA) | (A2B2) c6 (c2 |
d2)BG (FG)Bd (cB)cd | e2dc (AF)cd c4 |\
(BA)Bc (de)fg (gf)(ed) | (cF)cd (B4 {cBA}B4) :|
|:\
f2fg f2fb (bf)(fb) | b2(ag) f2(fg) e3d |\
(ca)(ac) (ca)(af gf)ed | f2ed (cB)A(G FE)DC |
(B,F)(dF) (B,F)(eF) (3(eFB,)(B,F) | (A,F)(cF) (A,F)(dF) (3(dFA,)(A,F) |\
B,2B,A, (B,A,)B,C (DE)(FA) | (BA)cA [1 (B4{cBA}B2)(e2 :|[2 (B4{cBA}B4 |]
